svgs/contacts.svg

<svg width="192" height="192" viewBox="0 0 192 192" fill="none" xmlns="http://www.w3.org/2000/svg">
<circle cx="96" cy="54" r="24" stroke="black" stroke-width="12"/>
<path fill-rule="evenodd" clip-rule="evenodd" d="M36.9073 118.675C44.7187 111.604 62.6231 100 96 100C129.377 100 147.281 111.604 155.093 118.675C158.606 121.854 160 126.528 160 131.267V152C160 160.837 152.837 168 144 168H96H48C39.1634 168 32 160.837 32 152V131.267C32 126.528 33.3944 121.854 36.9073 118.675ZM96 156H144C146.209 156 148 154.209 148 152V131.267C148 128.646 147.23 127.743 147.04 127.572C141.347 122.419 126.284 112 96 112C65.7157 112 50.6528 122.419 44.9602 127.572C44.7705 127.743 44 128.646 44 131.267V152C44 154.209 45.7909 156 48 156H96Z" fill="black"/>
</svg>

<svg width="192" height="192" fill="none" xmlns="http://www.w3.org/2000/svg"><circle cx="96" cy="54" r="24" stroke="#000" stroke-width="12"/><path fill-rule="evenodd" clip-rule="evenodd" d="M36.907 118.675C44.72 111.604 62.623 100 96 100s51.281 11.604 59.093 18.675c3.513 3.179 4.907 7.853 4.907 12.592V152c0 8.837-7.163 16-16 16H48c-8.837 0-16-7.163-16-16v-20.733c0-4.739 1.394-9.413 4.907-12.592zM96 156h48a4 4 0 0 0 4-4v-20.733c0-2.621-.77-3.524-.96-3.695C141.347 122.419 126.284 112 96 112s-45.347 10.419-51.04 15.572c-.19.171-.96 1.074-.96 3.695V152a4 4 0 0 0 4 4h48z" fill="#000"/></svg>
